X:522
T: EIN VOGEL RUFT IM WALDE
N: F0997
O: Europa, Mitteleuropa, Deutschland
R: Natur - Lied, Tiere
M: 4/4
L: 1/8
K: C
G,2 | G,2E2E2D2 | C4G,2
G,2 | G,2D2B,2G,2 | C4z2
CB, | A,2A,2C2A,2 | A,2G,2G,2
G,2 | G,2B,2D2E2 | C4z2

